X: 1628
T: Joe Yates' Varsovianna No 3
B: australian traditional tunes wiki
M:3/4
L:1/8
R: Varsovienne
Q: 1/4=100
K:G
V:1 
B>c|:"G"d2g2f2|"D7/Am"c4 A>B|c2e2d2|"G"B4D>G|B2A2B2|
"C/Am"c3B cd|1"A7"e2d2^c2|"G/D"d4B>c:|2"D7"e2d2F2|"G"G4G2||
|:"D"[FA]>[FA][F4A4]|"G"[GB]>[GB][G4B4]|"A7"c2d2e2|"D"f2a4|
"G"(3gag B2g2|"D"(3fgf A2f2|"A7"(3efe B2c2|1 "D"d2F2G2:|2 "D"d4||
% abcbook-tune_id 6342d53a4e1f9e86dcbc45ff


% abcbook-boost 0
% abcbook-tablature 
% abcbook-transpose 
% abcbook-lastupdated 1665324374908
% abcbook-soundfonts 
% abcbook-repeats 1
% NFF Book 2006

